X: 438
T: Brushy Fork of John's Creek
B: jims roots
M:C|
L:1/8
R: Reel
Q: 1/4=100
K:Amix
V:1 
|:"A"a3b  a2ef|"G"gaba g2e2|"A"a2(ba) a2ef|"E"edBd "A"A2[A2e2]|
  "A"a2 ab agef|"G"gab2 ag e2|"A"a2 ab agef|"E"e2 cB "A"A2A2:|
|:"A"[e3e3]f edBA|[B2e2]A2[B2e2]A2|edef ed[Be]A |"E"BAcB "A"A2A2|
"A"[e3e3]g edBA|[B2e2]A2[B2e2]A2|edef ed[Be]A |"E"BAcB "A"A2A2:||
% abcbook-tune_id 6298c24561ed8fe785e7714a


% abcbook-boost 0
% abcbook-tablature 
% abcbook-transpose 
% abcbook-lastupdated 1654178373526
% abcbook-soundfonts 
% abcbook-repeats 1


